src/img/social/linkedin-m.svg

<svg width="32" height="32" viewBox="0 0 48 48" fill="none" xmlns="http://www.w3.org/2000/svg">
    <path fill-rule="evenodd" clip-rule="evenodd" d="M24 48C37.2548 48 48 37.2548 48 24C48 10.7452 37.2548 0 24 0C10.7452 0 0 10.7452 0 24C0 37.2548 10.7452 48 24 48Z" fill="rgba(255, 255, 255, 0.12)"/>
    <path fill-rule="evenodd" clip-rule="evenodd" d="M15.7902 13C14.1035 13 13 14.1083 13 15.5644C13 16.9896 14.0715 18.1299 15.7255 18.1299H15.7575C17.4773 18.1299 18.5467 16.9896 18.5467 15.5644C18.5139 14.1083 17.4773 13 15.7902 13ZM36 26.4871V35H31.0693V27.0576C31.0693 25.0634 30.3574 23.7015 28.5721 23.7015C27.2097 23.7015 26.4004 24.6184 26.0429 25.5062C25.9131 25.8235 25.8797 26.264 25.8797 26.7091V34.9996H20.9486C20.9486 34.9996 21.0148 21.5479 20.9486 20.1554H25.88V22.259C25.8754 22.2668 25.8698 22.2744 25.8644 22.2821C25.8581 22.2907 25.852 22.2992 25.8473 22.3076H25.88V22.259C26.5353 21.2497 27.7039 19.8069 30.3239 19.8069C33.5679 19.8069 36 21.9285 36 26.4871ZM18.2223 35H13.2931V20.1554H18.2223V35Z" fill="rgba(255, 255, 255, 0.82)"/>
</svg>

<svg width="32" height="32" viewBox="0 0 48 48" fill="none" xmlns="http://www.w3.org/2000/svg"><path fill-rule="evenodd" clip-rule="evenodd" d="M24 48c13.255 0 24-10.745 24-24S37.255 0 24 0 0 10.745 0 24s10.745 24 24 24z" fill="rgba(255, 255, 255, 0.12)"/><path fill-rule="evenodd" clip-rule="evenodd" d="M15.79 13C14.104 13 13 14.108 13 15.564c0 1.426 1.072 2.566 2.726 2.566h.031c1.72 0 2.79-1.14 2.79-2.566C18.514 14.108 17.477 13 15.79 13zM36 26.487V35h-4.93v-7.942c0-1.995-.713-3.357-2.498-3.357-1.362 0-2.172.917-2.53 1.805-.129.317-.162.758-.162 1.203V35h-4.931s.066-13.451 0-14.844h4.931v2.104l-.016.023a.258.258 0 00-.017.026h.033v-.049c.655-1.01 1.824-2.452 4.444-2.452 3.244 0 5.676 2.122 5.676 6.68zM18.222 35h-4.929V20.155h4.93V35z" fill="rgba(255, 255, 255, 0.82)"/></svg>
